packages/sources/assets/src/assets/klarna.svg

<svg width="58" height="40" viewBox="0 0 58 40" fill="none" xmlns="http://www.w3.org/2000/svg">
<rect x="0.5" y="0.5" width="57" height="39" rx="3.5" fill="#F4B6C7" stroke="#F3F3F3"/>
<path fill-rule="evenodd" clip-rule="evenodd" d="M7.41299 25.7963H5V15H7.41299V25.7963ZM13.4398 15H11.0784C11.0784 16.9868 10.1885 18.8104 8.63709 20.0034L7.70155 20.7226L11.3264 25.7967H14.3068L10.9714 21.1277C12.5525 19.5116 13.4398 17.3373 13.4398 15ZM17.289 25.7933H15.0102V15.0021H17.289V25.7933ZM24.1766 18.3286V18.8061C23.5616 18.3754 22.8192 18.1223 22.0185 18.1223C19.8993 18.1223 18.1815 19.8857 18.1815 22.0611C18.1815 24.2365 19.8993 26 22.0185 26C22.8192 26 23.5616 25.7469 24.1766 25.3163V25.7933H26.3539V18.3286H24.1766ZM24.1694 22.0611C24.1694 23.1218 23.2861 23.9818 22.1966 23.9818C21.1071 23.9818 20.2238 23.1218 20.2238 22.0611C20.2238 21.0004 21.1071 20.1407 22.1966 20.1407C23.2861 20.1407 24.1694 21.0004 24.1694 22.0611ZM47.1454 18.8061V18.3286H49.3226V25.7933H47.1454V25.3163C46.5304 25.7469 45.788 26 44.9872 26C42.868 26 41.1502 24.2365 41.1502 22.0611C41.1502 19.8857 42.868 18.1223 44.9872 18.1223C45.788 18.1223 46.5304 18.3754 47.1454 18.8061ZM45.1654 23.9818C46.255 23.9818 47.1381 23.1218 47.1381 22.0611C47.1381 21.0004 46.255 20.1407 45.1654 20.1407C44.0758 20.1407 43.1926 21.0004 43.1926 22.0611C43.1926 23.1218 44.0758 23.9818 45.1654 23.9818ZM50.2675 24.5482C50.2675 23.7736 50.8792 23.1457 51.6337 23.1457C52.3882 23.1457 53 23.7736 53 24.5482C53 25.3227 52.3882 25.9507 51.6337 25.9507C50.8792 25.9507 50.2675 25.3227 50.2675 24.5482ZM37.2814 18.1278C36.4117 18.1278 35.5887 18.405 35.0384 19.1697V18.329H32.8706V25.7933H35.065V21.8706C35.065 20.7354 35.8065 20.1796 36.6993 20.1796C37.6562 20.1796 38.2063 20.7663 38.2063 21.8551V25.7933H40.3809V21.0463C40.3809 19.3092 39.0354 18.1278 37.2814 18.1278ZM29.7219 18.3287V19.3009C30.1583 18.7177 30.9715 18.3291 31.8557 18.3291V20.5013L31.8487 20.501L31.8435 20.5008L31.8379 20.5005L31.8298 20.5003C30.9684 20.5003 29.7269 21.1323 29.7269 22.3082V25.7933H27.4928V18.3287H29.7219Z" fill="#17120F"/>
</svg>

<svg width="58" height="40" fill="none" xmlns="http://www.w3.org/2000/svg"><rect x=".5" y=".5" width="57" height="39" rx="3.5" fill="#F4B6C7" stroke="#F3F3F3"/><path fill-rule="evenodd" clip-rule="evenodd" d="M7.413 25.796H5V15h2.413v10.796ZM13.44 15h-2.362c0 1.987-.89 3.81-2.44 5.003l-.936.72 3.624 5.074h2.98l-3.335-4.67c1.582-1.615 2.469-3.79 2.469-6.127Zm3.849 10.793H15.01v-10.79h2.279v10.79Zm6.888-7.464v.477a3.747 3.747 0 0 0-2.159-.684c-2.119 0-3.837 1.764-3.837 3.94 0 2.174 1.718 3.938 3.837 3.938.801 0 1.544-.253 2.159-.684v.477h2.177V18.33h-2.177Zm-.008 3.732c0 1.06-.883 1.92-1.972 1.92-1.09 0-1.973-.86-1.973-1.92s.883-1.92 1.973-1.92 1.972.86 1.972 1.92Zm22.976-3.255v-.477h2.178v7.464h-2.178v-.477a3.748 3.748 0 0 1-2.158.684c-2.119 0-3.837-1.764-3.837-3.939s1.718-3.939 3.837-3.939c.801 0 1.543.253 2.158.684Zm-1.98 5.176c1.09 0 1.973-.86 1.973-1.92 0-1.062-.883-1.921-1.973-1.921s-1.972.86-1.972 1.92.883 1.92 1.972 1.92Zm5.102.566c0-.774.612-1.402 1.367-1.402.754 0 1.366.628 1.366 1.402 0 .775-.612 1.403-1.366 1.403-.755 0-1.367-.628-1.367-1.403Zm-12.986-6.42c-.87 0-1.692.277-2.243 1.042v-.841h-2.167v7.464h2.194v-3.922c0-1.136.742-1.691 1.634-1.691.957 0 1.507.586 1.507 1.675v3.938h2.175v-4.747c0-1.737-1.346-2.918-3.1-2.918Zm-7.56.2v.973c.437-.583 1.25-.972 2.135-.972v2.172h-.026c-.862 0-2.103.631-2.103 1.807v3.485h-2.234V18.33h2.229Z" fill="#17120F"/></svg>
